OBS Studio/Fluent Dark Grey/sources/windowaudio.svg

<svg viewBox="0 0 1024 1024" xmlns="http://www.w3.org/2000/svg"><path d="m898.5 0c16.667 0 32.583 3.4167 47.75 10.25 15.167 6.8334 28.5 16 40 27.5 11.5 11.5 20.67 24.833 27.5 40 6.83 15.167 10.25 31.083 10.25 47.75v492c-3-8-6.58-16.5-10.75-25.5s-8.92-17.75-14.25-26.25c-5.333-8.5-11.25-16.333-17.75-23.5s-13.583-12.917-21.25-17.25v-397c0-8.667-1.667-16.917-5-24.75-3.333-7.8333-7.917-14.667-13.75-20.5-5.833-5.8333-12.667-10.417-20.5-13.75-7.833-3.3333-16.083-4.9999-24.75-5h-768c-9 1e-4 -17.333 1.6667-25 5-7.6667 3.3334-14.417 7.9167-20.25 13.75-5.8333 5.8334-10.417 12.583-13.75 20.25-3.3333 7.667-5 16-5 25v576c0 9 1.6667 17.417 5 25.25s7.8333 14.583 13.5 20.25 12.417 10.167 20.25 13.5c7.833 3.333 16.25 5 25.25 5h256v256h-160c-8.667 0-16.167-3.17-22.5-9.5s-9.5-13.83-9.5-22.5c0-8.667 3.167-16.167 9.5-22.5s13.833-9.5 22.5-9.5h96v-128h-194.5c-16.667 0-32.583-3.417-47.75-10.25s-28.5-16-40-27.5-20.667-24.833-27.5-40c-6.8333-15.167-10.25-31.083-10.25-47.75v-581c0-16.667 3.4167-32.583 10.25-47.75 6.8333-15.167 16-28.5 27.5-40 11.5-11.5 24.833-20.667 40-27.5 15.167-6.8333 31.083-10.25 47.75-10.25zm93.5 800c0 26.333-2 52.5-6 78.5s-10.667 51.5-20 76.5c-2 5.667-4.583 12.417-7.75 20.25s-7 15.417-11.5 22.75c-4.5 7.33-9.583 13.5-15.25 18.5s-12.167 7.5-19.5 7.5c-9 0-16.583-3.08-22.75-9.25s-9.25-13.75-9.25-22.75c0-2.333 0.25-4.833 0.75-7.5s1.25-5 2.25-7c4.333-7.667 8.5-14.833 12.5-21.5s7.5-14.333 10.5-23c7.667-21.333 13.25-43.167 16.75-65.5s5.25-44.833 5.25-67.5-1.75-45.167-5.25-67.5-9.083-44.167-16.75-65.5c-4.667-13.333-11.167-26.667-19.5-40-2-3.333-3.583-6.25-4.75-8.75s-1.75-5.917-1.75-10.25c0-9 3.083-16.583 9.25-22.75s13.75-9.25 22.75-9.25c7.333 0 13.833 2.5 19.5 7.5s10.75 11.167 15.25 18.5 8.333 14.917 11.5 22.75 5.75 14.583 7.75 20.25c9.333 25 16 50.5 20 76.5s6 52.167 6 78.5zm-288-192v384c0 8.67-3.25 16.17-9.75 22.5s-14.083 9.5-22.75 9.5-16.167-3.17-22.5-9.5l-118.5-118.5h-50.5c-8.667 0-16.167-3.167-22.5-9.5s-9.5-13.833-9.5-22.5v-128c0-8.667 3.167-16.167 9.5-22.5s13.833-9.5 22.5-9.5h50.5l118.5-118.5c6.333-6.333 13.833-9.5 22.5-9.5s16.25 3.167 22.75 9.5 9.75 13.833 9.75 22.5zm160 192c0 10.667-0.917 22.25-2.75 34.75s-4.333 25.167-7.5 38-6.917 25.333-11.25 37.5-9 22.917-14 32.25c-2.667 5.333-6.583 9.583-11.75 12.75s-10.75 4.75-16.75 4.75c-8.667 0-16.167-3.167-22.5-9.5s-9.5-13.833-9.5-22.5c0-3 0.75-6.75 2.25-11.25s3.167-9.167 5-14 3.75-9.5 5.75-14 3.5-8.083 4.5-10.75c4.667-12 8.25-24.833 10.75-38.5s3.75-26.833 3.75-39.5c0-13.333-1.417-26.5-4.25-39.5s-6.25-25.833-10.25-38.5c-1-3-2.5-6.833-4.5-11.5s-3.917-9.333-5.75-14-3.5-9.25-5-13.75-2.25-8.083-2.25-10.75c0-8.667 3.167-16.167 9.5-22.5s13.833-9.5 22.5-9.5c6 0 11.583 1.583 16.75 4.75s9.083 7.417 11.75 12.75c5 9.333 9.667 20.083 14 32.25s8.083 24.667 11.25 37.5 5.667 25.583 7.5 38.25 2.75 24.167 2.75 34.5z" fill="#fff"></path></svg>

<!-- Exported by Character Map UWP -->
<svg height="100%" viewBox="0 0 1024 1024" width="100%" xmlns="http://www.w3.org/2000/svg" xmlns:xlink="http://www.w3.org/1999/xlink">
  <path d="M898.5,0C915.167,0 931.083,3.41669 946.25,10.25C961.417,17.0834 974.75,26.2501 986.25,37.75C997.75,49.2501 1006.92,62.5834 1013.75,77.75C1020.58,92.9167 1024,108.833 1024,125.5L1024,617.5C1021,609.5 1017.42,601 1013.25,592C1009.08,583 1004.33,574.25 999,565.75C993.667,557.25 987.75,549.417 981.25,542.25C974.75,535.083 967.667,529.333 960,525L960,128C960,119.333 958.333,111.083 955,103.25C951.667,95.4167 947.083,88.5834 941.25,82.75C935.417,76.9167 928.583,72.3334 920.75,69C912.917,65.6667 904.667,64.0001 896,64L128,64C119,64.0001 110.667,65.6667 103,69C95.3333,72.3334 88.5833,76.9167 82.75,82.75C76.9167,88.5834 72.3333,95.3334 69,103C65.6667,110.667 64,119 64,128L64,704C64,713 65.6667,721.417 69,729.25C72.3333,737.083 76.8333,743.833 82.5,749.5C88.1667,755.167 94.9167,759.667 102.75,763C110.583,766.333 119,768 128,768L384,768L384,1024L224,1024C215.333,1024 207.833,1020.83 201.5,1014.5C195.167,1008.17 192,1000.67 192,992C192,983.333 195.167,975.833 201.5,969.5C207.833,963.167 215.333,960 224,960L320,960L320,832L125.5,832C108.833,832 92.9167,828.583 77.75,821.75C62.5833,814.917 49.25,805.75 37.75,794.25C26.25,782.75 17.0833,769.417 10.25,754.25C3.41667,739.083 0,723.167 0,706.5L0,125.5C0,108.833 3.41667,92.9167 10.25,77.75C17.0833,62.5834 26.25,49.2501 37.75,37.75C49.25,26.2501 62.5833,17.0834 77.75,10.25C92.9167,3.41669 108.833,0 125.5,0ZM992,800C992,826.333 990,852.5 986,878.5C982,904.5 975.333,930 966,955C964,960.667 961.417,967.417 958.25,975.25C955.083,983.083 951.25,990.667 946.75,998C942.25,1005.33 937.167,1011.5 931.5,1016.5C925.833,1021.5 919.333,1024 912,1024C903,1024 895.417,1020.92 889.25,1014.75C883.083,1008.58 880,1001 880,992C880,989.667 880.25,987.167 880.75,984.5C881.25,981.833 882,979.5 883,977.5C887.333,969.833 891.5,962.667 895.5,956C899.5,949.333 903,941.667 906,933C913.667,911.667 919.25,889.833 922.75,867.5C926.25,845.167 928,822.667 928,800C928,777.333 926.25,754.833 922.75,732.5C919.25,710.167 913.667,688.333 906,667C901.333,653.667 894.833,640.333 886.5,627C884.5,623.667 882.917,620.75 881.75,618.25C880.583,615.75 880,612.333 880,608C880,599 883.083,591.417 889.25,585.25C895.417,579.083 903,576 912,576C919.333,576 925.833,578.5 931.5,583.5C937.167,588.5 942.25,594.667 946.75,602C951.25,609.333 955.083,616.917 958.25,624.75C961.417,632.583 964,639.333 966,645C975.333,670 982,695.5 986,721.5C990,747.5 992,773.667 992,800ZM704,608L704,992C704,1000.67 700.75,1008.17 694.25,1014.5C687.75,1020.83 680.167,1024 671.5,1024C662.833,1024 655.333,1020.83 649,1014.5L530.5,896L480,896C471.333,896 463.833,892.833 457.5,886.5C451.167,880.167 448,872.667 448,864L448,736C448,727.333 451.167,719.833 457.5,713.5C463.833,707.167 471.333,704 480,704L530.5,704L649,585.5C655.333,579.167 662.833,576 671.5,576C680.167,576 687.75,579.167 694.25,585.5C700.75,591.833 704,599.333 704,608ZM864,800C864,810.667 863.083,822.25 861.25,834.75C859.417,847.25 856.917,859.917 853.75,872.75C850.583,885.583 846.833,898.083 842.5,910.25C838.167,922.417 833.5,933.167 828.5,942.5C825.833,947.833 821.917,952.083 816.75,955.25C811.583,958.417 806,960 800,960C791.333,960 783.833,956.833 777.5,950.5C771.167,944.167 768,936.667 768,928C768,925 768.75,921.25 770.25,916.75C771.75,912.25 773.417,907.583 775.25,902.75C777.083,897.917 779,893.25 781,888.75C783,884.25 784.5,880.667 785.5,878C790.167,866 793.75,853.167 796.25,839.5C798.75,825.833 800,812.667 800,800C800,786.667 798.583,773.5 795.75,760.5C792.917,747.5 789.5,734.667 785.5,722C784.5,719 783,715.167 781,710.5C779,705.833 777.083,701.167 775.25,696.5C773.417,691.833 771.75,687.25 770.25,682.75C768.75,678.25 768,674.667 768,672C768,663.333 771.167,655.833 777.5,649.5C783.833,643.167 791.333,640 800,640C806,640 811.583,641.583 816.75,644.75C821.917,647.917 825.833,652.167 828.5,657.5C833.5,666.833 838.167,677.583 842.5,689.75C846.833,701.917 850.583,714.417 853.75,727.25C856.917,740.083 859.417,752.833 861.25,765.5C863.083,778.167 864,789.667 864,800Z" fill="#FFFFFF" fill-opacity="1">
  </path>
</svg>
